src/images/double-monks.svg

<svg xmlns="http://www.w3.org/2000/svg" viewBox="0 0 553.61 513.57"><defs><style>.cls-1,.cls-2,.cls-3,.cls-4,.cls-5,.cls-6{fill:none;stroke:#000;stroke-miterlimit:10;}.cls-2,.cls-3,.cls-4,.cls-6{stroke-width:0.75px;}.cls-2{stroke-dasharray:1;}.cls-3{stroke-dasharray:2;}.cls-4{stroke-dasharray:4;}.cls-5{stroke-width:0.5px;}</style></defs><title>Ресурс 1</title><g id="Слой_2" data-name="Слой 2"><g id="Слой_2-2" data-name="Слой 2"><path class="cls-1" d="M186.53,209c-4.52-4.52.82-16.45,20.15-34.55S276.51,61.74,276.51,61.74s.91-16.86,53.15-3.29c0,0,46.47,16.86,63.75,28.79s14.81,8.64,14.81,8.64"/><path class="cls-1" d="M189.82,206.51s1.23-20.15,26.73-20.15,30-6.17,116.8,49.35"/><path class="cls-1" d="M458.38,122.82l21.8,12.34,5.76,12.34s3.08,6-4.32,12.13-9.14,9.87-9.14,9.87l-19.65-8.23"/><path class="cls-1" d="M446.87,150.17s-.62-14-26.12-13.57"/><path class="cls-1" d="M453.86,114.59l-2.47,33.31s1.63,7.74-12.34-1.75L415.2,134.33s-2.88-1.85-1-13.78,1.44-18.71,1.44-18.71-1-7.2,8-4.32,26.73,13.16,26.73,13.16S454,113,453.86,114.59Z"/><path class="cls-1" d="M408.33,99a113.16,113.16,0,0,0-3.41,32.11s-4.73,9.22,11.72,15.08A259.52,259.52,0,0,1,443,157s11.72,7.2,14.81-4.52L459.21,115s1.45-6.58-5.34-8.43l-33.11-18.3S410.26,85,409.44,94.64Z"/><path class="cls-1" d="M415.61,101.84s12-5.36,17.13-.52"/><path class="cls-1" d="M404.29,132.89s-15-5.49-19.32-1.82c0,0-7.81.59-10.49,9.63s-25.09,47.5-25.09,47.5-2.67,7.4,3.29,10.08"/><path class="cls-1" d="M400,221.52s36-23.65,53.88-19.54,25.09,9.25,22.21,25.29c0,0-7.2,11.52-7.4,13.16"/><path class="cls-1" d="M344.46,237.36s22.83-.62,27.76,6.37,12.34,14.19,13.57,18.92"/><path class="cls-1" d="M412.11,244.14l22.21,19.74L436,283s2.06,5.14-11.93,6.79l-14.39,1.65s-13.78-16.66-17.89-16.66"/><path class="cls-1" d="M351.25,201.51l-14.81,24.75s-6,11.72.82,17.89,41.13,26.94,41.13,26.94,10.08,8.84,18.3-1.44,14.81-25.7,15.42-27.56,5.76-5.14-6.37-16.86l-43-25.5S355.1,195.07,351.25,201.51Z"/><path class="cls-1" d="M366.67,208.36s-6-8.64-13,4.73L343,233.86s-1.85,2.67,10.08,8.43,28.38,19.33,28.38,19.33,7.4,7.2,11.31-2.06,13-23.21,13-23.21v-2.5a30.56,30.56,0,0,1-5.76-5.14c-2.88-3.29-2.26-5.76-14.19-14.39S357.21,209,357.21,209"/><path class="cls-2" d="M100,305.08c3.87-5.22,12.34-10.53,30.77-7.06,0,0,74.58,12.13,116.8,43.94s39.63,65.5,42,81.41"/><path class="cls-3" d="M97.22,307.27c1.56-5.29,8-17.35,33.51-12.54,0,0,74.58,12.13,116.8,43.94s44.67,67,47.08,82.87"/><path class="cls-1" d="M96.73,306.31s1.65-21,34-14.87c0,0,74.58,12.13,116.8,43.94s46.73,68.55,49.14,84.45"/><path class="cls-1" d="M114.83,295.26"/><path class="cls-4" d="M376.54,65l11.38-6.93C504.17-15.73,515.14,9.65,515.14,9.65c8.77,30.71,23.58,67.45,23.58,67.45,21.39,37.84,12.61,87,12.61,87,.55,5.82-19.19,23.24-29.06,30.37s-45.59,43.32-45.59,43.32c-19.26,8.23-51.48,92.67-51.48,92.67-16.45,48.81-51.34,67.45-51.34,67.45C362.56,406.67,270,441.21,270,441.21,249.18,450.54,112.09,488.37,62.18,490S5.7,463.7,5.7,463.7,4.61,467,3,445.05"/><path class="cls-1" d="M376.54,60.1l11.38-6.93C504.17-20.66,515.14,4.71,515.14,4.71c8.77,30.71,23.58,67.45,23.58,67.45,21.39,37.84,12.61,87,12.61,87,.55,5.82-19.19,23.24-29.06,30.37s-45.59,43.32-45.59,43.32c-19.26,8.23-51.48,92.67-51.48,92.67C408.76,374.31,373.87,393,373.87,393,362.56,401.73,270,436.28,270,436.28c-20.84,9.32-157.93,47.16-207.83,48.81S5.7,458.76,5.7,458.76,4.61,462.05,3,440.12s28-59.22,41.13-77.87,70.74-71.92,70.74-71.92l75-81.35s13.94-18.13,20.91-18.58"/><path class="cls-1" d="M291.4,53.17l11-19.39s20-13.71,42.09,0S389,66.68,393.4,87.24"/><path class="cls-1" d="M504.77.53s18.6,1.1-7.72,56.93c0,0-15.44,23.63-47.75,46.58"/><path class="cls-5" d="M4.28,453.8s-11.19,21.56,8,31.36,25.77,13.64,79.51,7.06c0,0,106.93-19.74,164.51-43.87s92.13-34,121.74-51.55,48.52-49.37,58-83.9,30.12-65.39,40.61-72.45l73.55-70.95s4.22-2.63,1.56-13.52"/><path class="cls-1" d="M1,467.54s-2,17.55,1.86,20.84S18.31,512,61.09,513.05,230,473,230,473,334.9,437.38,348.8,429.7s38.57-15.9,68.73-48.81c0,0,14.33-13.24,27.42-69.64,0,0,22.48-61.55,51-70.81l-3.29,34.18,41.13-34.18s14.14-8.93,14.26-38.93l2.19-32"/><line class="cls-1" x1="466.7" y1="267.79" x2="492.66" y2="274.62"/><path class="cls-1" d="M470.24,262.65l22.41,5.14s50.73-36.72,53.88-50.85"/><path class="cls-6" d="M469.7,267.79s10.18-18.56,26.06-25.42"/><path class="cls-5" d="M473.92,257.84l20.06,3s27.94-14.59,53.55-50.2"/><path class="cls-5" d="M541.73,218.33s.62,10.81-7.95,22.12"/><line class="cls-5" x1="492.22" y1="244.14" x2="489.43" y2="273.77"/><path class="cls-5" d="M549.94,173.85s-48.8,48.66-62.57,56.29"/><path class="cls-5" d="M549.49,180.38s-50.6,48.34-68.9,65.2-28,39.28-33.11,50.59-13.78,45.11-13.78,45.11-11.17,37.66-20.39,44.09"/><path class="cls-5" d="M552.27,151.89s-69.91,67.47-70.87,76.2"/><path class="cls-5" d="M451.83,105.45S484.7,81.07,496.63,63,516.7,20.16,512.22,2.19"/><path class="cls-5" d="M517.67,13.21s.15,19.13-9.93,28"/><path class="cls-5" d="M457.24,101.29s25.41-13,41.86-36.26c0,0,21-33.44,20.76-44.89"/><path class="cls-5" d="M510.81,17.35s5.43-3.32,7.65,9.84,25.05,67.92,25.87,72.11,5.46,21.52,1.29,69.4"/><path class="cls-5" d="M546.54,113.64s7.45,19.27-17.46,38.25S475.47,201,473.92,209c0,0-32.12,24.54-39.59,54.91"/><path class="cls-5" d="M419.38,290.33s3,33.54-45.51,67S291,394,291,394"/><path class="cls-5" d="M466.7,127.53s44-40.54,51-66.81c0,0,11.18,24.74,13.92,41.13s-54.37,85.89-53.51,99.67"/><path class="cls-5" d="M413.92,291.44s-3.9,41.38-128.74,88.18L106.05,451.08s-57.58,21.39-88.84-4.39c0,0-23.76-22.14,15.39-68.52"/><path class="cls-1" d="M10.07,467.07s11,25.31,120.66,0c0,0,115.16-22,206.19-62.59,0,0,52.1-23,65.8-45,0,0,24.43-40.06,31.24-55.47"/><path class="cls-5" d="M334.76,240.44s-30.19,47.23-41.16,74.65-30.24,34.08-30.24,34.08-110.69,38-150.17,42c0,0-61.06,35.4-68.64,67.12"/><path class="cls-5" d="M270.87,357.51s-119.3,50.25-146.72,49.7c0,0-23.21,22.15-14.13,42.29"/><path class="cls-5" d="M284.91,54.53s-62.05,111.32-70.28,119.31-13.22,7.62-19,20.14"/><line class="cls-6" x1="300.18" y1="53.82" x2="232.73" y2="186.15"/><path class="cls-1" d="M190.59,202.73s8.69-12.4,24-12.67,22.59-3.95,50.18,8.23,29.34,19.88,34,22.69,33.62,23.17,33.62,23.17l-2.36,8.16s-5.28,4.11,12.85,13.71,24.16,16.87,24.16,16.87,7.66,5,11.79-2.06,11-1.92,11-1.92l12.89,11.43,5.61-.45"/><path class="cls-6" d="M352.22,241.86s9.93-1.49,15.82,4.41a74.29,74.29,0,0,1,9.89,12.53"/><path class="cls-5" d="M394.25,221.29s11.35,12.78,3,24l-9.59,19"/><path class="cls-5" d="M360.77,209S349,225.35,346,236.36"/><path class="cls-1" d="M380.44,132.67s12.52-.24,15,2.25-2.13,16.51,15.64,21.06,27.24,3.16,27.24,3.16L443,157"/><path class="cls-6" d="M426.4,139.88s13.51.08,17,9"/><line class="cls-6" x1="450.47" y1="111.71" x2="449.29" y2="150.17"/><path class="cls-6" d="M411.7,110.79s-5-.82-2.26,4.94c0,0,5.76,0,6.79,2.26a5.91,5.91,0,0,0,2.26,2.88s7.05,1.75,5.69-2.57C424.17,118.29,418.28,110.37,411.7,110.79Z"/><path class="cls-6" d="M414.89,119.22s5.35,8.84,9.46.62"/><path class="cls-6" d="M350.8,214s-5.47-1.87-4.09,4.09a2,2,0,0,0,1.08,1.61c1.08.65,3.73-.69,4.43.43s2.24,3.12,2.24,3.12,5.49,3.44,4.95-3C359.4,220.2,355.21,214.17,350.8,214Z"/><path class="cls-6" d="M349.33,221.61s8.21,7.41,10.11,1.82"/><path class="cls-6" d="M391.76,280.6s-23.66,14.47-11.69,51.07"/><path class="cls-5" d="M10.07,483.87s9.34,16.29,48.82,14.92,102.27-18.92,102.27-18.92,77.59-21.39,80.61-22.76L321.84,427s65.53-24.5,79.51-41.59,36.41-71,38.62-66.92"/><path class="cls-5" d="M239.21,190,143.92,294S21.16,367.9,14,442.26"/><line class="cls-5" x1="307.9" y1="30.92" x2="296.67" y2="52.29"/><line class="cls-5" x1="318.02" y1="28.1" x2="304.15" y2="53.82"/><path class="cls-3" d="M298.31,41s13.25-10.89,25-7.39,36.61,7.7,60.67,48.06"/><path class="cls-3" d="M275.69,63.26s2.55-6,14.27-6,40.72,1.4,70.74,16.83c0,0,38.9,18.3,47.62,24.88"/><path class="cls-3" d="M416.48,104s9.92-6.64,32,5.55"/><path class="cls-3" d="M413.82,131.11s28.23-3.87,35.47,14.89"/><ellipse class="cls-6" cx="339.84" cy="215.76" rx="2.38" ry="2.56"/><ellipse class="cls-6" cx="443.44" cy="123.86" rx="2.38" ry="2.56"/><ellipse class="cls-6" cx="401.9" cy="113.64" rx="2.38" ry="2.56"/><ellipse class="cls-6" cx="377.93" cy="228.32" rx="3.1" ry="3.63"/><path class="cls-3" d="M453.86,158.25l18,8s11.05-12.39,12.89-14.32-4.49-15.3-4.49-15.3"/><path class="cls-3" d="M404.86,128.37l-19.07-1.94s-8.29-1-14.33,12-25,44.82-25,44.82-5.52,10.42,0,16.18,2.84,2.61,2.84,2.61"/><path class="cls-3" d="M362.76,199.72l33.11,17.22s30-23.59,47.09-21.67,37.45.5,36.72,34.11"/><path class="cls-2" d="M396.85,220s30.08-23,39.22-21.67,27-5.42,38.34,14"/><line class="cls-2" x1="456.25" y1="155.98" x2="473.23" y2="164.63"/><path class="cls-3" d="M347,233.34s21-3.1,29.73,9,11,18.49,11,18.49"/><path class="cls-3" d="M353.71,213.09s20.5-3.54,30.51,3.85c0,0,13,8.08,15.47,23.5"/><polyline class="cls-3" points="396.69 269.64 416.16 287.12 432.06 284.11 430.42 264.29 409.85 247.37"/><line class="cls-2" x1="393.98" y1="272.33" x2="415.88" y2="290.33"/><path class="cls-3" d="M201.2,186.69s4.11-9.52,29.06-7.33,78.1,25.18,105.4,46.73"/><path class="cls-2" d="M199.55,190s4.11-9.52,29.06-7.33,78.1,25.18,105.4,46.73"/><path class="cls-5" d="M387,72.12S488.9,28.57,498.4,54.53"/></g></g></svg>

<?xml version="1.0" encoding="UTF-8"?>
<svg width="555px" height="514px" viewBox="0 0 555 514" version="1.1" xmlns="http://www.w3.org/2000/svg" xmlns:xlink="http://www.w3.org/1999/xlink">
    <!-- Generator: Sketch 47.1 (45422) - http://www.bohemiancoding.com/sketch -->
    <title>double-monks</title>
    <desc>Created with Sketch.</desc>
    <defs></defs>
    <g id="Page-1" stroke="none" stroke-width="1" fill="none" fill-rule="evenodd">
        <g id="double-monks" transform="translate(1.000000, 0.000000)" stroke="#000000">
            <path d="M186.53,209 C182.01,204.48 187.35,192.55 206.68,174.45 C226.01,156.35 276.51,61.74 276.51,61.74 C276.51,61.74 277.42,44.88 329.66,58.45 C329.66,58.45 376.13,75.31 393.41,87.24 C410.69,99.17 408.22,95.88 408.22,95.88" id="Shape"></path>
            <path d="M189.82,206.51 C189.82,206.51 191.05,186.36 216.55,186.36 C242.05,186.36 246.55,180.19 333.35,235.71" id="Shape"></path>
            <path d="M458.38,122.82 L480.18,135.16 L485.94,147.5 C485.94,147.5 489.02,153.5 481.62,159.63 C474.22,165.76 472.48,169.5 472.48,169.5 L452.83,161.27" id="Shape"></path>
            <path d="M446.87,150.17 C446.87,150.17 446.25,136.17 420.75,136.6" id="Shape"></path>
            <path d="M453.86,114.59 L451.39,147.9 C451.39,147.9 453.02,155.64 439.05,146.15 L415.2,134.33 C415.2,134.33 412.32,132.48 414.2,120.55 C416.08,108.62 415.64,101.84 415.64,101.84 C415.64,101.84 414.64,94.64 423.64,97.52 C432.64,100.4 450.37,110.68 450.37,110.68 C450.37,110.68 454,113 453.86,114.59 Z" id="Shape"></path>
            <path d="M408.33,99 C405.664211,109.485291 404.515856,120.29869 404.92,131.11 C404.92,131.11 400.19,140.33 416.64,146.19 C425.617977,149.307945 434.4179,152.916715 443,157 C443,157 454.72,164.2 457.81,152.48 L459.21,115 C459.21,115 460.66,108.42 453.87,106.57 L420.76,88.27 C420.76,88.27 410.26,85 409.44,94.64 L408.33,99 Z" id="Shape"></path>
            <path d="M415.61,101.84 C415.61,101.84 427.61,96.48 432.74,101.32" id="Shape"></path>
            <path d="M404.29,132.89 C404.29,132.89 389.29,127.4 384.97,131.07 C384.97,131.07 377.16,131.66 374.48,140.7 C371.8,149.74 349.39,188.2 349.39,188.2 C349.39,188.2 346.72,195.6 352.68,198.28" id="Shape"></path>
            <path d="M400,221.52 C400,221.52 436,197.87 453.88,201.98 C471.76,206.09 478.97,211.23 476.09,227.27 C476.09,227.27 468.89,238.79 468.69,240.43" id="Shape"></path>
            <path d="M344.46,237.36 C344.46,237.36 367.29,236.74 372.22,243.73 C377.15,250.72 384.56,257.92 385.79,262.65" id="Shape"></path>
            <path d="M412.11,244.14 L434.32,263.88 L436,283 C436,283 438.06,288.14 424.07,289.79 L409.68,291.44 C409.68,291.44 395.9,274.78 391.79,274.78" id="Shape"></path>
            <path d="M351.25,201.51 L336.44,226.26 C336.44,226.26 330.44,237.98 337.26,244.15 C344.08,250.32 378.39,271.09 378.39,271.09 C378.39,271.09 388.47,279.93 396.69,269.65 C404.91,259.37 411.5,243.95 412.11,242.09 C412.72,240.23 417.87,236.95 405.74,225.23 L362.74,199.73 C362.74,199.73 355.1,195.07 351.25,201.51 Z" id="Shape"></path>
            <path d="M366.67,208.36 C366.67,208.36 360.67,199.72 353.67,213.09 L343,233.86 C343,233.86 341.15,236.53 353.08,242.29 C365.01,248.05 381.46,261.62 381.46,261.62 C381.46,261.62 388.86,268.82 392.77,259.56 C396.68,250.3 405.77,236.35 405.77,236.35 L405.77,233.85 C403.640442,232.387041 401.705003,230.65993 400.01,228.71 C397.13,225.42 397.75,222.95 385.82,214.32 C373.89,205.69 357.21,209 357.21,209" id="Shape"></path>
            <path d="M100,305.08 C103.87,299.86 112.34,294.55 130.77,298.02 C130.77,298.02 205.35,310.15 247.57,341.96 C289.79,373.77 287.2,407.46 289.57,423.37" id="Shape" stroke-width="0.75" stroke-dasharray="1"></path>
            <path d="M97.22,307.27 C98.78,301.98 105.22,289.92 130.73,294.73 C130.73,294.73 205.31,306.86 247.53,338.67 C289.75,370.48 292.2,405.67 294.61,421.54" id="Shape" stroke-width="0.75" stroke-dasharray="2"></path>
            <path d="M96.73,306.31 C96.73,306.31 98.38,285.31 130.73,291.44 C130.73,291.44 205.31,303.57 247.53,335.38 C289.75,367.19 294.26,403.93 296.67,419.83" id="Shape"></path>
            <path d="M376.54,65 L387.92,58.07 C504.17,-15.73 515.14,9.65 515.14,9.65 C523.91,40.36 538.72,77.1 538.72,77.1 C560.11,114.94 551.33,164.1 551.33,164.1 C551.88,169.92 532.14,187.34 522.27,194.47 C512.4,201.6 476.68,237.79 476.68,237.79 C457.42,246.02 425.2,330.46 425.2,330.46 C408.75,379.27 373.86,397.91 373.86,397.91 C362.56,406.67 270,441.21 270,441.21 C249.18,450.54 112.09,488.37 62.18,490 C12.27,491.63 5.7,463.7 5.7,463.7 C5.7,463.7 4.61,467 3,445.05" id="Shape" stroke-width="0.75" stroke-dasharray="4"></path>
            <path d="M376.54,60.1 L387.92,53.17 C504.17,-20.66 515.14,4.71 515.14,4.71 C523.91,35.42 538.72,72.16 538.72,72.16 C560.11,110 551.33,159.16 551.33,159.16 C551.88,164.98 532.14,182.4 522.27,189.53 C512.4,196.66 476.68,232.85 476.68,232.85 C457.42,241.08 425.2,325.52 425.2,325.52 C408.76,374.31 373.87,393 373.87,393 C362.56,401.73 270,436.28 270,436.28 C249.16,445.6 112.07,483.44 62.17,485.09 C12.27,486.74 5.7,458.76 5.7,458.76 C5.7,458.76 4.61,462.05 3,440.12 C1.39,418.19 31,380.9 44.13,362.25 C57.26,343.6 114.87,290.33 114.87,290.33 L189.87,208.98 C189.87,208.98 203.81,190.85 210.78,190.4" id="Shape"></path>
            <path d="M291.4,53.17 L302.4,33.78 C302.4,33.78 322.4,20.07 344.49,33.78 C366.58,47.49 389,66.68 393.4,87.24" id="Shape"></path>
            <path d="M504.77,0.53 C504.77,0.53 523.37,1.63 497.05,57.46 C497.05,57.46 481.61,81.09 449.3,104.04" id="Shape"></path>
            <path d="M4.28,453.8 C4.28,453.8 -6.91,475.36 12.28,485.16 C31.47,494.96 38.05,498.8 91.79,492.22 C91.79,492.22 198.72,472.48 256.3,448.35 C313.88,424.22 348.43,414.35 378.04,396.8 C407.65,379.25 426.56,347.43 436.04,312.9 C445.52,278.37 466.16,247.51 476.65,240.45 L550.2,169.5 C550.2,169.5 554.42,166.87 551.76,155.98" id="Shape" stroke-width="0.5"></path>
            <path d="M1,467.54 C1,467.54 -1,485.09 2.86,488.38 C6.72,491.67 18.31,512 61.09,513.05 C103.87,514.1 230,473 230,473 C230,473 334.9,437.38 348.8,429.7 C362.7,422.02 387.37,413.8 417.53,380.89 C417.53,380.89 431.86,367.65 444.95,311.25 C444.95,311.25 467.43,249.7 495.95,240.44 L492.66,274.62 L533.79,240.44 C533.79,240.44 547.93,231.51 548.05,201.51 L550.24,169.51" id="Shape"></path>
            <path d="M466.7,267.79 L492.66,274.62" id="Shape"></path>
            <path d="M470.24,262.65 L492.65,267.79 C492.65,267.79 543.38,231.07 546.53,216.94" id="Shape"></path>
            <path d="M469.7,267.79 C469.7,267.79 479.88,249.23 495.76,242.37" id="Shape" stroke-width="0.75"></path>
            <path d="M473.92,257.84 L493.98,260.84 C493.98,260.84 521.92,246.25 547.53,210.64" id="Shape" stroke-width="0.5"></path>
            <path d="M541.73,218.33 C541.73,218.33 542.35,229.14 533.78,240.45" id="Shape" stroke-width="0.5"></path>
            <path d="M492.22,244.14 L489.43,273.77" id="Shape" stroke-width="0.5"></path>
            <path d="M549.94,173.85 C549.94,173.85 501.14,222.51 487.37,230.14" id="Shape" stroke-width="0.5"></path>
            <path d="M549.49,180.38 C549.49,180.38 498.89,228.72 480.59,245.58 C462.29,262.44 452.59,284.86 447.48,296.17 C442.37,307.48 433.7,341.28 433.7,341.28 C433.7,341.28 422.53,378.94 413.31,385.37" id="Shape" stroke-width="0.5"></path>
            <path d="M552.27,151.89 C552.27,151.89 482.36,219.36 481.4,228.09" id="Shape" stroke-width="0.5"></path>
            <path d="M451.83,105.45 C451.83,105.45 484.7,81.07 496.63,63 C508.56,44.93 516.7,20.16 512.22,2.19" id="Shape" stroke-width="0.5"></path>
            <path d="M517.67,13.21 C517.67,13.21 517.82,32.34 507.74,41.21" id="Shape" stroke-width="0.5"></path>
            <path d="M457.24,101.29 C457.24,101.29 482.65,88.29 499.1,65.03 C499.1,65.03 520.1,31.59 519.86,20.14" id="Shape" stroke-width="0.5"></path>
            <path d="M510.81,17.35 C510.81,17.35 516.24,14.03 518.46,27.19 C520.68,40.35 543.51,95.11 544.33,99.3 C545.15,103.49 549.79,120.82 545.62,168.7" id="Shape" stroke-width="0.5"></path>
            <path d="M546.54,113.64 C546.54,113.64 553.99,132.91 529.08,151.89 C504.17,170.87 475.47,201 473.92,209 C473.92,209 441.8,233.54 434.33,263.91" id="Shape" stroke-width="0.5"></path>
            <path d="M419.38,290.33 C419.38,290.33 422.38,323.87 373.87,357.33 C325.36,390.79 291,394 291,394" id="Shape" stroke-width="0.5"></path>
            <path d="M466.7,127.53 C466.7,127.53 510.7,86.99 517.7,60.72 C517.7,60.72 528.88,85.46 531.62,101.85 C534.36,118.24 477.25,187.74 478.11,201.52" id="Shape" stroke-width="0.5"></path>
            <path d="M413.92,291.44 C413.92,291.44 410.02,332.82 285.18,379.62 L106.05,451.08 C106.05,451.08 48.47,472.47 17.21,446.69 C17.21,446.69 -6.55,424.55 32.6,378.17" id="Shape" stroke-width="0.5"></path>
            <path d="M10.07,467.07 C10.07,467.07 21.07,492.38 130.73,467.07 C130.73,467.07 245.89,445.07 336.92,404.48 C336.92,404.48 389.02,381.48 402.72,359.48 C402.72,359.48 427.15,319.42 433.96,304.01" id="Shape"></path>
            <path d="M334.76,240.44 C334.76,240.44 304.57,287.67 293.6,315.09 C282.63,342.51 263.36,349.17 263.36,349.17 C263.36,349.17 152.67,387.17 113.19,391.17 C113.19,391.17 52.13,426.57 44.55,458.29" id="Shape" stroke-width="0.5"></path>
            <path d="M270.87,357.51 C270.87,357.51 151.57,407.76 124.15,407.21 C124.15,407.21 100.94,429.36 110.02,449.5" id="Shape" stroke-width="0.5"></path>
            <path d="M284.91,54.53 C284.91,54.53 222.86,165.85 214.63,173.84 C206.4,181.83 201.41,181.46 195.63,193.98" id="Shape" stroke-width="0.5"></path>
            <path d="M300.18,53.82 L232.73,186.15" id="Shape" stroke-width="0.75"></path>
            <path d="M190.59,202.73 C190.59,202.73 199.28,190.33 214.59,190.06 C229.9,189.79 237.18,186.11 264.77,198.29 C292.36,210.47 294.11,218.17 298.77,220.98 C303.43,223.79 332.39,244.15 332.39,244.15 L330.03,252.31 C330.03,252.31 324.75,256.42 342.88,266.02 C361.01,275.62 367.04,282.89 367.04,282.89 C367.04,282.89 374.7,287.89 378.83,280.83 C382.96,273.77 389.83,278.91 389.83,278.91 L402.72,290.34 L408.33,289.89" id="Shape"></path>
            <path d="M352.22,241.86 C352.22,241.86 362.15,240.37 368.04,246.27 C371.777126,250.079335 375.092929,254.280247 377.93,258.8" id="Shape" stroke-width="0.75"></path>
            <path d="M394.25,221.29 C394.25,221.29 405.6,234.07 397.25,245.29 L387.66,264.29" id="Shape" stroke-width="0.5"></path>
            <path d="M360.77,209 C360.77,209 349,225.35 346,236.36" id="Shape" stroke-width="0.5"></path>
            <path d="M380.44,132.67 C380.44,132.67 392.96,132.43 395.44,134.92 C397.92,137.41 393.31,151.43 411.08,155.98 C428.85,160.53 438.32,159.14 438.32,159.14 L443,157" id="Shape"></path>
            <path d="M426.4,139.88 C426.4,139.88 439.91,139.96 443.4,148.88" id="Shape" stroke-width="0.75"></path>
            <path d="M450.47,111.71 L449.29,150.17" id="Shape" stroke-width="0.75"></path>
            <path d="M411.7,110.79 C411.7,110.79 406.7,109.97 409.44,115.73 C409.44,115.73 415.2,115.73 416.23,117.99 C416.659521,119.165005 417.450831,120.1734 418.49,120.87 C418.49,120.87 425.54,122.62 424.18,118.3 C424.17,118.29 418.28,110.37 411.7,110.79 Z" id="Shape" stroke-width="0.75"></path>
            <path d="M414.89,119.22 C414.89,119.22 420.24,128.06 424.35,119.84" id="Shape" stroke-width="0.75"></path>
            <path d="M350.8,214 C350.8,214 345.33,212.13 346.71,218.09 C346.768445,218.77694 347.17657,219.385348 347.79,219.7 C348.87,220.35 351.52,219.01 352.22,220.13 C352.92,221.25 354.46,223.25 354.46,223.25 C354.46,223.25 359.95,226.69 359.41,220.25 C359.4,220.2 355.21,214.17 350.8,214 Z" id="Shape" stroke-width="0.75"></path>
            <path d="M349.33,221.61 C349.33,221.61 357.54,229.02 359.44,223.43" id="Shape" stroke-width="0.75"></path>
            <path d="M391.76,280.6 C391.76,280.6 368.1,295.07 380.07,331.67" id="Shape" stroke-width="0.75"></path>
            <path d="M10.07,483.87 C10.07,483.87 19.41,500.16 58.89,498.79 C98.37,497.42 161.16,479.87 161.16,479.87 C161.16,479.87 238.75,458.48 241.77,457.11 L321.84,427 C321.84,427 387.37,402.5 401.35,385.41 C415.33,368.32 437.76,314.41 439.97,318.49" id="Shape" stroke-width="0.5"></path>
            <path d="M239.21,190 L143.92,294 C143.92,294 21.16,367.9 14,442.26" id="Shape" stroke-width="0.5"></path>
            <path d="M307.9,30.92 L296.67,52.29" id="Shape" stroke-width="0.5"></path>
            <path d="M318.02,28.1 L304.15,53.82" id="Shape" stroke-width="0.5"></path>
            <path d="M298.31,41 C298.31,41 311.56,30.11 323.31,33.61 C335.06,37.11 359.92,41.31 383.98,81.67" id="Shape" stroke-width="0.75" stroke-dasharray="2"></path>
            <path d="M275.69,63.26 C275.69,63.26 278.24,57.26 289.96,57.26 C301.68,57.26 330.68,58.66 360.7,74.09 C360.7,74.09 399.6,92.39 408.32,98.97" id="Shape" stroke-width="0.75" stroke-dasharray="2"></path>
            <path d="M416.48,104 C416.48,104 426.4,97.36 448.48,109.55" id="Shape" stroke-width="0.75" stroke-dasharray="2"></path>
            <path d="M413.82,131.11 C413.82,131.11 442.05,127.24 449.29,146" id="Shape" stroke-width="0.75" stroke-dasharray="2"></path>
            <ellipse id="Oval" stroke-width="0.75" cx="339.84" cy="215.76" rx="2.38" ry="2.56"></ellipse>
            <ellipse id="Oval" stroke-width="0.75" cx="443.44" cy="123.86" rx="2.38" ry="2.56"></ellipse>
            <ellipse id="Oval" stroke-width="0.75" cx="401.9" cy="113.64" rx="2.38" ry="2.56"></ellipse>
            <ellipse id="Oval" stroke-width="0.75" cx="377.93" cy="228.32" rx="3.1" ry="3.63"></ellipse>
            <path d="M453.86,158.25 L471.86,166.25 C471.86,166.25 482.91,153.86 484.75,151.93 C486.59,150 480.26,136.63 480.26,136.63" id="Shape" stroke-width="0.75" stroke-dasharray="2"></path>
            <path d="M404.86,128.37 L385.79,126.43 C385.79,126.43 377.5,125.43 371.46,138.43 C365.42,151.43 346.46,183.25 346.46,183.25 C346.46,183.25 340.94,193.67 346.46,199.43 C351.98,205.19 349.3,202.04 349.3,202.04" id="Shape" stroke-width="0.75" stroke-dasharray="2"></path>
            <path d="M362.76,199.72 L395.87,216.94 C395.87,216.94 425.87,193.35 442.96,195.27 C460.05,197.19 480.41,195.77 479.68,229.38" id="Shape" stroke-width="0.75" stroke-dasharray="2"></path>
            <path d="M396.85,220 C396.85,220 426.93,197 436.07,198.33 C445.21,199.66 463.07,192.91 474.41,212.33" id="Shape" stroke-width="0.75" stroke-dasharray="1"></path>
            <path d="M456.25,155.98 L473.23,164.63" id="Shape" stroke-width="0.75" stroke-dasharray="1"></path>
            <path d="M347,233.34 C347,233.34 368,230.24 376.73,242.34 C385.46,254.44 387.73,260.83 387.73,260.83" id="Shape" stroke-width="0.75" stroke-dasharray="2"></path>
            <path d="M353.71,213.09 C353.71,213.09 374.21,209.55 384.22,216.94 C384.22,216.94 397.22,225.02 399.69,240.44" id="Shape" stroke-width="0.75" stroke-dasharray="2"></path>
            <polyline id="Shape" stroke-width="0.75" stroke-dasharray="2" points="396.69 269.64 416.16 287.12 432.06 284.11 430.42 264.29 409.85 247.37"></polyline>
            <path d="M393.98,272.33 L415.88,290.33" id="Shape" stroke-width="0.75" stroke-dasharray="1"></path>
            <path d="M201.2,186.69 C201.2,186.69 205.31,177.17 230.26,179.36 C255.21,181.55 308.36,204.54 335.66,226.09" id="Shape" stroke-width="0.75" stroke-dasharray="2"></path>
            <path d="M199.55,190 C199.55,190 203.66,180.48 228.61,182.67 C253.56,184.86 306.71,207.85 334.01,229.4" id="Shape" stroke-width="0.75" stroke-dasharray="1"></path>
            <path d="M387,72.12 C387,72.12 488.9,28.57 498.4,54.53" id="Shape" stroke-width="0.5"></path>
        </g>
    </g>
</svg>
